!! 00000] TT[WS
!!!OTL: Shandingshang gaimiao haixian di
!!!ARE: Asia, China, Shanxi Xingxian
!! Ethnic Group: Han
!! WII, 107 (1)
!!!SCT: J0557
!!!YEM: Copyright 1995, estate of Helmut Schaffrath.
**kern
*ICvox
*Ivox
*M2/4
*k[f#c#g#]
*A:
{8ee
8dd
8ee
16ee
16ff#
=1
8b
8b
4e
=2
8ee
8dd
8ee
16ee
16ff#
=3
2e}
=4
{8ff#
8dd
4ee
=5
8b
8b
4e
=6
8ee
16ee
16dd
8b
8ee
=7
2a}
==
!!!AGN: Xiaodiao. Qingge, Sichun
!!!ONB: ESAC (Essen Associative Code) Database: CHINA
!!!AMT: simple duple
!!!AIN: vox
!!!EED: Helmut Schaffrath
!!!EEV: 1.0
*-
